X: 540
T: Bränd-Jons polska
O: Dalarna, Orsa
R: Polska
S: Bränd Jon
Z: Håkan Lidén, 2014-12-25
N: Nedanstående låt noterad i traditionellare 3/4
M: 3/4
L: 1/8
K: Ador
E>^G A>B c>A | e2 c/d/c/A/ B>^G | A>B cd e>a | a<^g e2 E2- |
E>^G A>B c>A | e2 c/d/c/A/ B>^G | A>B cd e>a | a<^g e4- | e2 e4 :|
|: z2 a^g e>=g | (3:2:4gf d2 f2 e2- | e2 a/b/a/^g/ e>=g | (3:2:4gf d2 f2 e2- |
(3:2:4ef e2 d2 c>B | A>G =F/G/A/B/ c>d | (3:2:4ef e2 d2 c>c | (3B^GB A4 :|]
(:musicend:)

(:music:)
